Resources/Public/Images/Icons/Ionicons/ios-calculator.svg

<svg xmlns="http://www.w3.org/2000/svg" width="32" height="32" viewBox="0 0 512 512"><path d="M368 64H144c-17.7 0-32 14.3-32 32v320c0 17.7 14.3 32 32 32h224c17.7 0 32-14.3 32-32V96c0-17.7-14.3-32-32-32zm-8 216v128h-48V280h48zm0-80v48h-48v-48h48zm-80 160v48h-48v-48h48zm0-80v48h-48v-48h48zm0-80v48h-48v-48h48zm-80 160v48h-48v-48h48zm0-80v48h-48v-48h48zm0-80v48h-48v-48h48zm-48-48v-48h208v48H152z"/></svg>

<?xml version="1.0" encoding="utf-8"?>
<!-- Generator: Adobe Illustrator 16.2.1, SVG Export Plug-In . SVG Version: 6.00 Build 0)  -->
<!DOCTYPE svg PUBLIC "-//W3C//DTD SVG 1.1//EN" "http://www.w3.org/Graphics/SVG/1.1/DTD/svg11.dtd">
<svg version="1.1" id="Layer_1" xmlns="http://www.w3.org/2000/svg" xmlns:xlink="http://www.w3.org/1999/xlink" x="0px" y="0px"
	 width="32px" height="32px" viewBox="0 0 512 512" style="enable-background:new 0 0 512 512;" xml:space="preserve">
<path d="M368,64H144c-17.7,0-32,14.3-32,32v320c0,17.7,14.3,32,32,32h224c17.7,0,32-14.3,32-32V96C400,78.3,385.7,64,368,64z
	 M360,280v128h-48V280H360z M360,200v48h-48v-48H360z M280,360v48h-48v-48H280z M280,280v48h-48v-48H280z M280,200v48h-48v-48H280z
	 M200,360v48h-48v-48H200z M200,280v48h-48v-48H200z M200,200v48h-48v-48H200z M152,152v-48h208v48H152z"/>
</svg>
